img/optimized-computer.svg

<svg fill="none" xmlns="http://www.w3.org/2000/svg" viewBox="0 0 860 904">
  <path d="M728 596.5a271.496 271.496 0 00-79.521-191.979 271.496 271.496 0 00-383.958-.001A271.5 271.5 0 00185 596.5h543z" fill="#F72585" fill-opacity=".3"/>
  <rect x="274" y="264" width="365" height="201" rx="3" fill="#E5E9F7"/>
  <path stroke="#000" stroke-width="2" d="M450.212 875.5h50.01M555.212 875h50.01M450.212 883h50.01M555.212 882.5h50.01M450.212 891h50.01M555.212 890.5h50.01"/>
  <path d="M431.212 308.589h204.293M430.212 365.434h186.627M475.997 337.24h133.206" stroke="#000" stroke-width="3"/>
  <rect x="463.074" y="328.558" width="157.356" height="18.211" rx="3.5" stroke="#000" stroke-width="3"/>
  <rect x="431.712" y="278.5" width="189" height="18" rx="3.5" stroke="#000" stroke-width="3"/>
  <rect x="437.152" y="378.965" width="73.511" height="84.541" rx="4" stroke="#000" stroke-width="2"/>
  <rect x="437.152" y="488.414" width="73.511" height="84.541" rx="4" stroke="#000" stroke-width="2"/>
  <rect x="437.152" y="708.161" width="73.511" height="84.541" rx="4" stroke="#000" stroke-width="2"/>
  <rect x="437.152" y="598.712" width="73.511" height="84.541" rx="4" stroke="#000" stroke-width="2"/>
  <rect x="437.152" y="818.459" width="73.511" height="84.541" rx="4" stroke="#000" stroke-width="2"/>
  <rect x="542.359" y="378.965" width="73.511" height="84.541" rx="4" stroke="#000" stroke-width="2"/>
  <rect x="542.359" y="488.414" width="73.511" height="84.541" rx="4" stroke="#000" stroke-width="2"/>
  <rect x="542.359" y="708.161" width="73.511" height="84.541" rx="4" stroke="#000" stroke-width="2"/>
  <rect x="542.359" y="598.712" width="73.511" height="84.541" rx="4" stroke="#000" stroke-width="2"/>
  <rect x="542.359" y="818.459" width="73.511" height="84.541" rx="4" stroke="#000" stroke-width="2"/>
  <path stroke="#000" stroke-width="5" stroke-linecap="round" d="M448.833 424.675h50.149M448.833 534.124h50.149M448.833 753.871h50.149M448.833 644.422h50.149M448.833 864.168h50.149M554.04 424.675h50.149M554.04 534.124h50.149M554.04 753.871h50.149M554.04 644.422h50.149M554.04 864.168h50.149"/>
  <path stroke="#000" stroke-width="2" d="M453.969 435.932H496.4M453.969 545.381H496.4M453.969 765.128H496.4M453.969 655.679H496.4M559.176 435.932h42.431M559.176 545.381h42.431M559.176 765.128h42.431M559.176 655.679h42.431M453.969 442.295H496.4M453.969 551.744H496.4M453.969 771.491H496.4M453.969 662.042H496.4M559.176 442.295h42.431M559.176 551.744h42.431M559.176 771.491h42.431M559.176 662.042h42.431M453.969 449.083H496.4M453.969 558.532H496.4M453.969 778.279H496.4M453.969 668.829H496.4M559.176 449.083h42.431M559.176 558.532h42.431M559.176 778.279h42.431M559.176 668.829h42.431"/>
  <rect x="287.5" y="301.5" width="77" height="39" rx="3.5" stroke="#000" stroke-width="3"/>
  <path stroke="#000" d="M275.5 264.5h101v198h-101z"/>
  <path d="M319.947 313.5H343M318 327.5h35" stroke="#000" stroke-width="3"/>
  <rect x="287.5" y="370.5" width="77" height="39" rx="3.5" stroke="#000" stroke-width="3"/>
  <path d="M329.421 390h23.158M286 285.5h65M377 315.5h262M406 385.5h211M406 448.5h140m25 0h47" stroke="#000" stroke-width="3"/>
  <rect x="407.5" y="405.5" width="88" height="22" rx="3.5" stroke="#000" stroke-width="3"/>
  <rect x="513.5" y="405.5" width="88" height="22" rx="3.5" stroke="#000" stroke-width="3"/>
  <rect x="407.5" y="329.5" width="189" height="36" rx="3.5" stroke="#000" stroke-width="3"/>
  <path stroke="#000" stroke-width="3" d="M425 348.5h148"/>
  <rect x="275.5" y="265.5" width="143" height="196" rx="3.5" stroke="#000" stroke-width="3"/>
  <path stroke="#000" stroke-width="3" d="M273.979 322.5l146-2M327 347.5h69M327 403.5h69M326 375.5h69M326 431.5h69"/>
  <path fill="#7393DF" stroke="#A68A8A" stroke-width="2" d="M417 488h79v97h-79z"/>
  <path d="M365 588c0-6.075 4.925-11 11-11h160c6.075 0 11 4.925 11 11v6H365v-6z" fill="#7393DF" stroke="#A68A8A" stroke-width="2"/>
  <mask id="a" fill="#fff">
    <path fill-rule="evenodd" clip-rule="evenodd" d="M267 250a8 8 0 00-8 8v220.459h393V258a8 8 0 00-8-8H267zm9.962 13.141a3 3 0 00-3 3v195.166a3 3 0 003 3h358.074a3 3 0 003-3V266.141c0-1.656-1.344-3-3.001-3H276.962z"/>
  </mask>
  <path fill-rule="evenodd" clip-rule="evenodd" d="M267 250a8 8 0 00-8 8v220.459h393V258a8 8 0 00-8-8H267zm9.962 13.141a3 3 0 00-3 3v195.166a3 3 0 003 3h358.074a3 3 0 003-3V266.141c0-1.656-1.344-3-3.001-3H276.962z" fill="#0AE0E0"/>
  <path d="M259 478.459h-2v2h2v-2zm393 0v2h2v-2h-2zM261 258a6 6 0 016-6v-4c-5.523 0-10 4.477-10 10h4zm0 220.459V258h-4v220.459h4zm391-2H259v4h393v-4zM650 258v220.459h4V258h-4zm-6-6a6 6 0 016 6h4c0-5.523-4.477-10-10-10v4zm-377 0h377v-4H267v4zm8.962 14.141a1 1 0 011-1v-4a5 5 0 00-5 5h4zm0 195.166V266.141h-4v195.166h4zm1 1a1 1 0 01-1-1h-4a5 5 0 005 5v-4zm358.074 0H276.962v4h358.074v-4zm1-1a1 1 0 01-1 1v4a5 5 0 005-5h-4zm0-195.166v195.166h4V266.141h-4zm-1.001-1a1 1 0 011.001 1h4a5 5 0 00-5.001-5v4zm-358.073 0h358.073v-4H276.962v4z" fill="#212837" fill-opacity=".11" mask="url(#a)"/>
  <path fill-rule="evenodd" clip-rule="evenodd" d="M267 250a8 8 0 00-8 8v271a8 8 0 008 8h378a8 8 0 008-8V258a8 8 0 00-8-8H267zm2 2a8 8 0 00-8 8v209a8 8 0 008 8h374a8 8 0 008-8V260a8 8 0 00-8-8H269z" fill="#7393DF"/>
  <path stroke="#56227C" stroke-width="5" stroke-linecap="round" d="M89.5 596.5h733.006"/>
  <path stroke="#56227C" stroke-width="5" d="M461 695.5h97.046M648 624.5h97.046M234 656.5h97.046"/>
  <path fill-rule="evenodd" clip-rule="evenodd" d="M712.343 305.062a1 1 0 00-1.327 1.113l2.801 15.885a1 1 0 001.627.592l4.071-3.415 4.748 5.658 3.705-3.109-4.748-5.658 4.581-3.844a1 1 0 00-.301-1.705l-15.157-5.517z" fill="#9E068F"/>
  <rect x="395" y="282" width="133" height="164" rx="4" stroke="#000" stroke-width="2"/>
  <path d="M419.5 358.5H500" stroke="#000" stroke-width="5" stroke-linecap="round"/>
  <path d="M405 389h111.5M406 400h111.5M406 378h111.5" stroke="#000" stroke-width="2"/>
  <path d="M475.25 332.875c1.719 0 3.109-1.406 3.109-3.125l.016-15.625A3.124 3.124 0 00475.25 311h-25a3.115 3.115 0 00-3.125 3.125v15.625a3.124 3.124 0 003.125 3.125H444V336h37.5v-3.125h-6.25zm-10.938-5.516v-3.421c-4.343 0-7.203 1.328-9.374 4.25.874-4.172 3.296-8.329 9.374-9.172v-3.328l6.25 5.828-6.25 5.843z" fill="#000"/>
  <rect x="435" y="417" width="46.429" height="10" rx="3" fill="#2C1C1C"/>
  <circle cx="103.5" cy="208.5" r="20.5" fill="#82C0CC"/>
  <circle cx="320" cy="160" r="11" fill="#17BEBB"/>
  <circle cx="468.5" cy="133.5" r="26.5" fill="#FF70A6"/>
  <circle cx="443" cy="19" r="19" fill="#9C4206"/>
  <circle cx="17" cy="470" r="17" fill="#FFA62B"/>
  <circle cx="842.5" cy="446.5" r="17.5" fill="#FFD670"/>
  <circle cx="578.5" cy="177.5" r="17.5" fill="#A01A7D"/>
  <circle cx="159.5" cy="390.5" r="20.5" fill="#16697A"/>
  <circle cx="760.5" cy="159.5" r="11.5" fill="#489FB5"/>
  <circle cx="781.5" cy="281.5" r="20.5" fill="#FF9770"/>
  <circle cx="668.5" cy="76.5" r="20.5" fill="#E9FF70"/>
  <circle cx="233.5" cy="71.5" r="15.5" fill="#70D6FF"/>
  <rect x="273" y="263" width="366" height="202" rx="5" fill="#FADDE1"/>
  <rect x="273" y="262" width="366" height="163" rx="5" fill="#FFC4D6"/>
  <rect x="273" y="262" width="366" height="123" rx="5" fill="#FF97B7"/>
</svg>

<svg width="860" height="868" viewBox="0 0 860 868" fill="none" xmlns="http://www.w3.org/2000/svg">
<g id="Group 22">
<path id="half-circle" d="M728 596.5C728 524.494 699.396 455.437 648.479 404.521C597.563 353.604 528.506 325 456.5 325C384.494 325 315.437 353.604 264.521 404.52C213.604 455.437 185 524.494 185 596.5L456.5 596.5H728Z" fill="#F72585" fill-opacity="0.3"/>
<rect id="back-cover" x="274" y="264" width="365" height="201" rx="3" fill="#E5E9F7"/>
<g id="computer">
<g id="computer_2">
<rect id="Rectangle 6" x="417" y="488" width="79" height="97" fill="#7393DF" stroke="#A68A8A" stroke-width="2"/>
<path id="Rectangle 7" d="M365 588C365 581.925 369.925 577 376 577H536C542.075 577 547 581.925 547 588V594H365V588Z" fill="#7393DF" stroke="#A68A8A" stroke-width="2"/>
<g id="Exclude">
<mask id="path-5-inside-1" fill="white">
<path fill-rule="evenodd" clip-rule="evenodd" d="M267 250C262.582 250 259 253.582 259 258V478.459H652V258C652 253.582 648.418 250 644 250H267ZM276.962 263.141C275.305 263.141 273.962 264.485 273.962 266.141V461.307C273.962 462.964 275.305 464.307 276.962 464.307H635.036C636.692 464.307 638.036 462.964 638.036 461.307V266.141C638.036 264.485 636.692 263.141 635.035 263.141H276.962Z"/>
</mask>
<path fill-rule="evenodd" clip-rule="evenodd" d="M267 250C262.582 250 259 253.582 259 258V478.459H652V258C652 253.582 648.418 250 644 250H267ZM276.962 263.141C275.305 263.141 273.962 264.485 273.962 266.141V461.307C273.962 462.964 275.305 464.307 276.962 464.307H635.036C636.692 464.307 638.036 462.964 638.036 461.307V266.141C638.036 264.485 636.692 263.141 635.035 263.141H276.962Z" fill="#0AE0E0"/>
<path d="M259 478.459H257V480.459H259V478.459ZM652 478.459V480.459H654V478.459H652ZM261 258C261 254.686 263.686 252 267 252V248C261.477 248 257 252.477 257 258H261ZM261 478.459V258H257V478.459H261ZM652 476.459H259V480.459H652V476.459ZM650 258V478.459H654V258H650ZM644 252C647.314 252 650 254.686 650 258H654C654 252.477 649.523 248 644 248V252ZM267 252H644V248H267V252ZM275.962 266.141C275.962 265.589 276.41 265.141 276.962 265.141V261.141C274.201 261.141 271.962 263.38 271.962 266.141H275.962ZM275.962 461.307V266.141H271.962V461.307H275.962ZM276.962 462.307C276.41 462.307 275.962 461.859 275.962 461.307H271.962C271.962 464.068 274.201 466.307 276.962 466.307V462.307ZM635.036 462.307H276.962V466.307H635.036V462.307ZM636.036 461.307C636.036 461.859 635.588 462.307 635.036 462.307V466.307C637.797 466.307 640.036 464.068 640.036 461.307H636.036ZM636.036 266.141V461.307H640.036V266.141H636.036ZM635.035 265.141C635.588 265.141 636.036 265.589 636.036 266.141H640.036C640.036 263.38 637.797 261.141 635.035 261.141V265.141ZM276.962 265.141H635.035V261.141H276.962V265.141Z" fill="#212837" fill-opacity="0.11" mask="url(#path-5-inside-1)"/>
</g>
<path id="Exclude_2" fill-rule="evenodd" clip-rule="evenodd" d="M267 250C262.582 250 259 253.582 259 258V529C259 533.418 262.582 537 267 537H645C649.418 537 653 533.418 653 529V258C653 253.582 649.418 250 645 250H267ZM269 252C264.582 252 261 255.582 261 260V469C261 473.418 264.582 477 269 477H643C647.418 477 651 473.418 651 469V260C651 255.582 647.418 252 643 252H269Z" fill="#7393DF"/>
</g>
</g>
<line id="Line 1" x1="89.5" y1="596.5" x2="822.506" y2="596.5" stroke="#56227C" stroke-width="5" stroke-linecap="round"/>
<g id="intro">
<line id="Line 2" x1="461" y1="695.5" x2="558.046" y2="695.5" stroke="#56227C" stroke-width="5"/>
<line id="Line 3" x1="648" y1="624.5" x2="745.046" y2="624.5" stroke="#56227C" stroke-width="5"/>
<line id="Line 4" x1="234" y1="656.5" x2="331.046" y2="656.5" stroke="#56227C" stroke-width="5"/>
</g>
<path id="mouse" fill-rule="evenodd" clip-rule="evenodd" d="M712.343 305.062C711.619 304.798 710.882 305.417 711.016 306.175L713.817 322.06C713.95 322.818 714.855 323.147 715.444 322.652L719.515 319.237L724.263 324.895L727.968 321.786L723.22 316.128L727.801 312.284C728.39 311.789 728.223 310.842 727.5 310.579L712.343 305.062Z" fill="#9E068F"/>
<g id="bubble">
<circle id="Ellipse 2" cx="103.5" cy="208.5" r="20.5" fill="#82C0CC"/>
<circle id="Ellipse 8" cx="320" cy="160" r="11" fill="#17BEBB"/>
<circle id="Ellipse 7" cx="468.5" cy="133.5" r="26.5" fill="#FF70A6"/>
<circle id="Ellipse 13" cx="443" cy="19" r="19" fill="#9C4206"/>
<circle id="Ellipse 12" cx="17" cy="470" r="17" fill="#FFA62B"/>
<circle id="Ellipse 11" cx="842.5" cy="446.5" r="17.5" fill="#FFD670"/>
<circle id="Ellipse 9" cx="578.5" cy="177.5" r="17.5" fill="#A01A7D"/>
<circle id="Ellipse 6" cx="159.5" cy="390.5" r="20.5" fill="#16697A"/>
<circle id="Ellipse 5" cx="760.5" cy="159.5" r="11.5" fill="#489FB5"/>
<circle id="Ellipse 4" cx="781.5" cy="281.5" r="20.5" fill="#FF9770"/>
<circle id="Ellipse 10" cx="668.5" cy="76.5" r="20.5" fill="#E9FF70"/>
<circle id="Ellipse 3" cx="233.5" cy="71.5" r="15.5" fill="#70D6FF"/>
</g>
    <g id="Group 21">
        <g id="Group 17">
        <rect id="Rectangle 33" x="301.25" y="281.25" width="83.5" height="68.5" rx="6.75" fill="#9C4206" fill-opacity="0.28" stroke="#A01A7D" stroke-width="2.5" stroke-linejoin="round"/>
        <path id="Vector" d="M342 302.16V295C337 295.5 333 299.79 333 305C333 310.21 337 314.5 342 315V307.84C341 307.43 340 306.32 340 305C340 303.68 341 302.57 342 302.16ZM345.86 304H353C352.52 299.25 349 295.47 344 295V302.16C345 302.46 345.52 303.14 345.86 304ZM344 307.84V315C349 314.53 352.52 310.75 353 306H345.86C345.52 306.86 345 307.54 344 307.84Z" fill="black"/>
        <line id="Line 65" x1="322" y1="325.5" x2="364" y2="325.5" stroke="black" stroke-width="3"/>
        <line id="Line 66" x1="322" y1="334.5" x2="364" y2="334.5" stroke="black" stroke-width="3"/>
        </g>
        <g id="Group 18">
        <rect id="Rectangle 33_2" x="301.25" y="374.25" width="83.5" height="68.5" rx="6.75" fill="#9C4206" fill-opacity="0.28" stroke="#A01A7D" stroke-width="2.5" stroke-linejoin="round"/>
        <path id="Vector_2" d="M342 395.16V388C337 388.5 333 392.79 333 398C333 403.21 337 407.5 342 408V400.84C341 400.43 340 399.32 340 398C340 396.68 341 395.57 342 395.16ZM345.86 397H353C352.52 392.25 349 388.47 344 388V395.16C345 395.46 345.52 396.14 345.86 397ZM344 400.84V408C349 407.53 352.52 403.75 353 399H345.86C345.52 399.86 345 400.54 344 400.84Z" fill="black"/>
        <line id="Line 65_2" x1="322" y1="418.5" x2="364" y2="418.5" stroke="black" stroke-width="3"/>
        <line id="Line 66_2" x1="322" y1="427.5" x2="364" y2="427.5" stroke="black" stroke-width="3"/>
        </g>
        <g id="Group 19">
        <rect id="Rectangle 33_3" x="425.25" y="281.25" width="185.5" height="68.5" rx="6.75" fill="#9C4206" fill-opacity="0.28" stroke="#A01A7D" stroke-width="2.5" stroke-linejoin="round"/>
        <path id="Line 65_3" d="M497 300.5H586" stroke="black" stroke-width="3"/>
        <path id="Line 66_3" d="M495 317H584" stroke="black" stroke-width="3"/>
        <path id="Line 67" d="M495 333H584" stroke="black" stroke-width="3"/>
        <path id="Vector_3" d="M457.984 299C449.152 299 442 306.168 442 315C442 323.832 449.152 331 457.984 331C466.832 331 474 323.832 474 315C474 306.168 466.832 299 457.984 299ZM464.768 324.6L458 320.52L451.232 324.6L453.024 316.904L447.056 311.736L454.928 311.064L458 303.8L461.072 311.048L468.944 311.72L462.976 316.888L464.768 324.6Z" fill="black"/>
        </g>
        <g id="Group 20">
        <rect id="Rectangle 33_4" x="425.25" y="374.25" width="185.5" height="68.5" rx="6.75" fill="#9C4206" fill-opacity="0.28" stroke="#A01A7D" stroke-width="2.5" stroke-linejoin="round"/>
        <path id="Line 65_4" d="M497 393.5H586" stroke="black" stroke-width="3"/>
        <path id="Line 66_4" d="M495 410H584" stroke="black" stroke-width="3"/>
        <path id="Line 67_2" d="M495 426H584" stroke="black" stroke-width="3"/>
        <path id="Vector_4" d="M457.984 392C449.152 392 442 399.168 442 408C442 416.832 449.152 424 457.984 424C466.832 424 474 416.832 474 408C474 399.168 466.832 392 457.984 392ZM464.768 417.6L458 413.52L451.232 417.6L453.024 409.904L447.056 404.736L454.928 404.064L458 396.8L461.072 404.048L468.944 404.72L462.976 409.888L464.768 417.6Z" fill="black"/>
        </g>
    </g>
</g>
</svg>
